X:13601
T:Madame Bonaparte
R:Hornpipe
C:Trad.
O:England
Z:Paul Hardy's Annex Tunebook 2015 (see www.paulhardy.net). Creative Commons cc by-nc-sa licenced.
M:4/4
L:1/8
Q:1/4=120
K:G
|:"D"dc|"G"B2BA BdBG|"C"c2cB cecA|"G"GBdf "Em"gfge|"D"d3e dcBA|
"G"B2BA BdBG|"C"cBcd "Am"efge|"G"dBGB "D"cAFA|"G"G2"D"GF "G"G2:|
|:"D"BA|"G"GBdf "Em"gfge|"D"d3e dcBA|"G"GBdf "Em"gfge|"D"d3e dcBA|
"G"BdGd BdGd|"C"ceAe ceAe|"G"BdGd "Em"BdGd|"D"FADA FADA|
"G"BdGd BdGd|"C"cBcd "Am"efge|"G"dBGB "D"cAFA|"G"G2"D"GF "G"G2:|

